web/assets/img/functions/940-closed.svg

<svg width="512" height="512" viewBox="0 0 512 512" fill="none" xmlns="http://www.w3.org/2000/svg">
    <path fill-rule="evenodd" clip-rule="evenodd"
          d="M54 60C54 52.268 60.268 46 68 46H124C131.732 46 138 52.268 138 60V493.879C138 502.987 129.441 509.67 120.604 507.461L64.6045 493.461C58.3721 491.903 54 486.303 54 479.879V60ZM74 66V475.195L118 486.195V66H74Z"
          fill="#282828"/>
    <path fill-rule="evenodd" clip-rule="evenodd"
          d="M118 60C118 52.268 124.268 46 132 46H188C195.732 46 202 52.268 202 60V493.879C202 502.987 193.441 509.67 184.604 507.461L128.604 493.461C122.372 491.903 118 486.303 118 479.879V60ZM138 66V475.195L182 486.195V66H138Z"
          fill="#282828"/>
    <path fill-rule="evenodd" clip-rule="evenodd"
          d="M182 60C182 52.268 188.268 46 196 46H252C259.732 46 266 52.268 266 60V493.879C266 502.987 257.441 509.67 248.604 507.461L192.604 493.461C186.372 491.903 182 486.303 182 479.879V60ZM202 66V475.195L246 486.195V66H202Z"
          fill="#282828"/>
    <path fill-rule="evenodd" clip-rule="evenodd"
          d="M246 60C246 52.268 252.268 46 260 46H316C323.732 46 330 52.268 330 60V493.879C330 502.987 321.441 509.67 312.604 507.461L256.604 493.461C250.372 491.903 246 486.303 246 479.879V60ZM266 66V475.195L310 486.195V66H266Z"
          fill="#282828"/>
    <path fill-rule="evenodd" clip-rule="evenodd"
          d="M310 60C310 52.268 316.268 46 324 46H380C387.732 46 394 52.268 394 60V493.879C394 502.987 385.441 509.67 376.604 507.461L320.604 493.461C314.372 491.903 310 486.303 310 479.879V60ZM330 66V475.195L374 486.195V66H330Z"
          fill="#282828"/>
    <path fill-rule="evenodd" clip-rule="evenodd"
          d="M374 60C374 52.268 380.268 46 388 46H444C451.732 46 458 52.268 458 60V493.879C458 502.987 449.441 509.67 440.604 507.461L384.604 493.461C378.372 491.903 374 486.303 374 479.879V60ZM394 66V475.195L438 486.195V66H394Z"
          fill="#282828"/>
    <path fill-rule="evenodd" clip-rule="evenodd"
          d="M6 16C6 10.4772 10.4772 6 16 6H496C501.523 6 506 10.4772 506 16V56C506 61.5228 501.523 66 496 66H16C10.4772 66 6 61.5228 6 56V16ZM26 26V46H486V26H26Z"
          fill="#00D151"/>
</svg>

<?xml version="1.0" encoding="utf-8"?>
<!-- Generator: Adobe Illustrator 28.2.0, SVG Export Plug-In . SVG Version: 6.00 Build 0)  -->
<svg version="1.1" id="Calque_1" xmlns="http://www.w3.org/2000/svg" xmlns:xlink="http://www.w3.org/1999/xlink" x="0px" y="0px"
	 viewBox="0 0 512 512" style="enable-background:new 0 0 512 512;" xml:space="preserve">
<style type="text/css">
	.st0{fill-rule:evenodd;clip-rule:evenodd;fill:#282828;}
	.st1{fill-rule:evenodd;clip-rule:evenodd;fill:#33B0DF;}
</style>
<path class="st0" d="M54,60c0-7.7,6.3-14,14-14h56c7.7,0,14,6.3,14,14v433.9c0,9.1-8.6,15.8-17.4,13.6l-56-14
	c-6.2-1.6-10.6-7.2-10.6-13.6V60z M74,66v409.2l44,11V66H74z"/>
<path class="st0" d="M118,60c0-7.7,6.3-14,14-14h56c7.7,0,14,6.3,14,14v433.9c0,9.1-8.6,15.8-17.4,13.6l-56-14
	c-6.2-1.6-10.6-7.2-10.6-13.6V60z M138,66v409.2l44,11V66H138z"/>
<path class="st0" d="M182,60c0-7.7,6.3-14,14-14h56c7.7,0,14,6.3,14,14v433.9c0,9.1-8.6,15.8-17.4,13.6l-56-14
	c-6.2-1.6-10.6-7.2-10.6-13.6V60z M202,66v409.2l44,11V66H202z"/>
<path class="st0" d="M246,60c0-7.7,6.3-14,14-14h56c7.7,0,14,6.3,14,14v433.9c0,9.1-8.6,15.8-17.4,13.6l-56-14
	c-6.2-1.6-10.6-7.2-10.6-13.6V60z M266,66v409.2l44,11V66H266z"/>
<path class="st0" d="M310,60c0-7.7,6.3-14,14-14h56c7.7,0,14,6.3,14,14v433.9c0,9.1-8.6,15.8-17.4,13.6l-56-14
	c-6.2-1.6-10.6-7.2-10.6-13.6V60z M330,66v409.2l44,11V66H330z"/>
<path class="st0" d="M374,60c0-7.7,6.3-14,14-14h56c7.7,0,14,6.3,14,14v433.9c0,9.1-8.6,15.8-17.4,13.6l-56-14
	c-6.2-1.6-10.6-7.2-10.6-13.6V60z M394,66v409.2l44,11V66H394z"/>
<path class="st1" d="M6,16c0-5.5,4.5-10,10-10h480c5.5,0,10,4.5,10,10v40c0,5.5-4.5,10-10,10H16c-5.5,0-10-4.5-10-10V16z M26,26v20
	h460V26H26z"/>
</svg>
